svg/color/intcon.svg

<svg width="40" height="40" viewBox="0 0 40 40" fill="none" xmlns="http://www.w3.org/2000/svg">
<g clip-path="url(#clip0_819_3625)">
<path d="M20 0C31.0457 0 40 8.9543 40 20C40 31.0457 31.0457 40 20 40C8.95431 40 7.90517e-06 31.0457 0 20C6.58765e-07 8.95431 8.95431 1.97595e-06 20 0Z" fill="#CCE3F3"/>
<path d="M26 6C30.4183 6 34 9.58172 34 14V26C34 30.4183 30.4183 34 26 34H14C9.58172 34 6 30.4183 6 26V14C6 9.58172 9.58172 6 14 6H26Z" fill="#0071C5"/>
<g clip-path="url(#clip1_819_3625)">
<path d="M28.5039 15.7817V24.1003H29.9999V15.7817H28.5039ZM9.99994 15.8995V17.4736H11.574V15.8986L9.99994 15.8995ZM18.8622 16.2185V21.7035C18.8622 22.1684 18.9021 22.5599 18.98 22.8743C19.0589 23.1824 19.193 23.4343 19.3788 23.6246C19.5627 23.8149 19.8092 23.9499 20.1064 24.0333C20.4091 24.1176 20.7897 24.1565 21.2437 24.1565H21.4394V22.7674C21.2219 22.7674 21.0361 22.7565 20.902 22.7338C20.7703 22.7214 20.6463 22.6663 20.5486 22.5771C20.4627 22.4819 20.408 22.3627 20.3919 22.2355C20.3668 22.0535 20.3556 21.87 20.3583 21.6863V19.7091H21.4394V18.4259H20.3583V16.2185H18.8622ZM15.6861 18.3136C15.3273 18.3136 14.9974 18.3861 14.7057 18.532C14.4093 18.6778 14.162 18.8799 13.9608 19.1373L13.882 19.2433V18.4259H12.4085V24.0949H13.8937V21.1825C13.91 20.6497 14.0387 20.2582 14.2861 20.0054C14.5489 19.7362 14.8679 19.6021 15.2321 19.6021C15.6635 19.6021 15.9942 19.7372 16.2126 19.9945C16.4256 20.2519 16.5379 20.6161 16.5379 21.0819V24.094H18.0449V20.8789C18.0503 20.0724 17.8374 19.4336 17.4233 18.985C17.0082 18.5365 16.4265 18.3136 15.6861 18.3136ZM24.8067 18.319C24.4191 18.3175 24.0351 18.3924 23.6765 18.5395C23.3179 18.6866 22.9919 18.903 22.7171 19.1762C22.4543 19.439 22.2413 19.7535 22.09 20.1123C21.9339 20.4766 21.8555 20.8695 21.8598 21.2659C21.8598 21.6754 21.9323 22.0615 22.0782 22.4203C22.2241 22.7783 22.4316 23.0927 22.689 23.3555C22.9463 23.6183 23.2662 23.8321 23.6359 23.9835C24.0056 24.1402 24.4152 24.2191 24.852 24.2191C26.1179 24.2191 26.9018 23.6418 27.373 23.1045L26.2973 22.2853C26.0726 22.5544 25.5353 22.9187 24.8629 22.9187C24.4424 22.9187 24.0954 22.8236 23.8317 22.6278C23.5678 22.4333 23.3782 22.1546 23.2943 21.8376L23.2771 21.7869H27.7309V21.255C27.7309 20.8463 27.6584 20.4648 27.518 20.1069C27.3768 19.7611 27.1738 19.4439 26.919 19.1708C26.6574 18.9003 26.3427 18.6868 25.9947 18.5437C25.6178 18.3898 25.2138 18.3134 24.8067 18.319ZM10.0389 18.4259V24.0949H11.535V18.4259H10.0389ZM24.7895 19.5913C25.8153 19.5913 26.2973 20.3135 26.2973 20.7285L23.2889 20.7339C23.2889 20.3189 23.7646 19.5967 24.7895 19.5913Z" fill="white"/>
</g>
</g>
<defs>
<clipPath id="clip0_819_3625">
<rect width="40" height="40" fill="white"/>
</clipPath>
<clipPath id="clip1_819_3625">
<rect width="20" height="20" fill="white" transform="translate(10 10)"/>
</clipPath>
</defs>
</svg>

<svg xmlns="http://www.w3.org/2000/svg" width="40" height="40" fill="none" viewBox="0 0 40 40"><g clip-path="url(#intcon_svg-a)"><path fill="#CCE3F3" d="M20 0c11.046 0 20 8.954 20 20s-8.954 20-20 20S0 31.046 0 20 8.954 0 20 0"/><path fill="#0071C5" d="M26 6a8 8 0 0 1 8 8v12a8 8 0 0 1-8 8H14a8 8 0 0 1-8-8V14a8 8 0 0 1 8-8z"/><g clip-path="url(#intcon_svg-b)"><path fill="#fff" d="M28.504 15.782V24.1H30v-8.318zM10 15.899v1.575h1.574v-1.575zm8.862.32v5.484q0 .699.118 1.171.12.463.399.75c.184.19.43.326.727.41q.456.125 1.138.123h.195v-1.39a3.4 3.4 0 0 1-.537-.033.6.6 0 0 1-.353-.157.63.63 0 0 1-.157-.342 4 4 0 0 1-.034-.549V19.71h1.081v-1.283h-1.08V16.22zm-3.176 2.095a2.2 2.2 0 0 0-.98.218 2.1 2.1 0 0 0-.745.605l-.079.106v-.817h-1.473v5.669h1.485v-2.912q.023-.799.392-1.178a1.28 1.28 0 0 1 .946-.403c.432 0 .762.135.98.392.214.258.326.622.326 1.088v3.012h1.507v-3.215c.005-.807-.208-1.445-.622-1.894q-.624-.672-1.737-.671m9.12.005a2.95 2.95 0 0 0-2.089.857 2.9 2.9 0 0 0-.627.936 2.85 2.85 0 0 0-.23 1.154q0 .616.218 1.154a2.8 2.8 0 0 0 1.558 1.563 3.1 3.1 0 0 0 1.216.236c1.266 0 2.05-.577 2.521-1.114l-1.076-.82c-.224.27-.762.634-1.434.634-.42 0-.768-.095-1.031-.291a1.44 1.44 0 0 1-.538-.79l-.017-.051h4.454v-.532q-.002-.612-.213-1.148a3.1 3.1 0 0 0-.599-.936 2.7 2.7 0 0 0-.924-.627 3 3 0 0 0-1.188-.225m-14.767.107v5.669h1.496v-5.67zm14.75 1.165c1.026 0 1.508.723 1.508 1.137l-3.008.006c0-.415.476-1.137 1.5-1.143"/></g></g><defs><clipPath id="intcon_svg-a"><path fill="#fff" d="M0 0h40v40H0z"/></clipPath><clipPath id="intcon_svg-b"><path fill="#fff" d="M10 10h20v20H10z"/></clipPath></defs></svg>
